human-baby-changing-table.svg

<svg fill="currentColor" viewBox="0 0 24 24"><path d="M6.5 6.08c-.78.04-1.5.54-1.78 1.32L3 12.13V22h4v-9.16l1.42-3.9L10.7 10H14V8h-2.85L7.29 6.2a2.2 2.2 0 0 0-.79-.12M9 17h12v2H9m1-15.5a2 2 0 0 1-2 2 2 2 0 0 1-2-2 2 2 0 0 1 2-2 2 2 0 0 1 2 2m11 11a1.5 1.5 0 0 1-1.5 1.5 1.5 1.5 0 0 1-1.5-1.5 1.5 1.5 0 0 1 1.5-1.5 1.5 1.5 0 0 1 1.5 1.5M9 11v2h2v1c0 1.11.89 2 2 2h2c1.11 0 2-.89 2-2v-3h-2v2h-2v-1a1 1 0 0 0-1-1Z"/></svg>

<svg  viewBox="0 0 24 24" fill="currentColor"><path  d="M6.5 6.08C5.72 6.12 5 6.62 4.72 7.4L3 12.13V22H7V12.84L8.42 8.94L10.7 10H14V8H11.15L7.29 6.2C7.03 6.11 6.76 6.07 6.5 6.08M9 17H21V19H9M10 3.5A2 2 0 0 1 8 5.5A2 2 0 0 1 6 3.5A2 2 0 0 1 8 1.5A2 2 0 0 1 10 3.5M21 14.5A1.5 1.5 0 0 1 19.5 16A1.5 1.5 0 0 1 18 14.5A1.5 1.5 0 0 1 19.5 13A1.5 1.5 0 0 1 21 14.5M9 11V13H11V14C11 15.11 11.89 16 13 16H15C16.11 16 17 15.11 17 14V11H15V13H13V12A1 1 0 0 0 12 11Z"/></svg>
